X:1
T:Title
%%score { 1 | 2 }
L:1/8
Q:1/4=106
M:4/4
K:C
V:1 treble nm="Grand Piano"
V:2 bass 
V:1
 [EG]2 [EG]2 [EG]2 E2 | A2 A2 A[Ac][GB][FA] | [EG]2 E2 D2 C2 | G6 z2 | [EG]2 [EG]2 [EG]2 E2 | %5
w: E.~S.~Lorenz * * *|||||
 A2 A2 [^FA][Ac][GB][DFA] | [DGd]2 [EAc]2 [DGB]2 [C^FA]2 | [B,G]6 z2 | .[EG]2 .[EG]2 .[EG]2 [Gc]d | %9
w: ||||
 e3 f edce | d3 e dcBd | [Ec]3 [Fd] [Ec][GB][FA][EG] | .[EG]2 .[EG]2 .[EG]2 [Gc]d | e3 f edce | %14
w: |||||
 d2 d2 c2 [DB]2 | [Ec]6 z2 |] %16
w: ||
V:2
 [C,G,]2 [C,G,]2 [C,G,]2 [C,G,C]2 | [F,C]2 [F,A,F]2 [F,CF][F,C][F,C][F,C] | %2
 [C,C]2 [C,G,C]2 [D,G,B,]2 [E,G,]2 | [G,B,D]6 z2 | [C,C]2 [C,C]2 [C,C]2 [C,G,C]2 | %5
 [F,C]2 [F,A,F]2 [D,D][D,D][D,D]C, | B,,2 C,2 D,2 D,2 | G,,6 z2 | %8
 .[C,C]2 .[C,C]2 .[C,C]2 [E,C][K:treble][G,B,G] | [CG]3 [CA] [CG][CF][CE][CG] | %10
 [G,B,F]3 [G,CG] [G,F][G,E][G,D][G,F] | [C,G,]3 [C,G,] [B,,G,][C,C][C,C][C,C] | %12
 .[C,C]2 .[C,C]2 .[C,C]2 [E,C][K:treble][G,B,G] | [CG]3 [CA] [CG][CF][CE][CG] | %14
 [F,A,F]2 [F,A,F]2 [G,E]2 [G,,G,]2 | [C,G,]6 z2 |] %16

